X:1
T:The Glorious Marriage Supper
T:The Glorious Marriage Supper
T:George Nathaniel Fenn
T:Jennie Wilson, 1903
T:Public Domain Courtesy of the Cyber Hymnal™
T:Public Domain Courtesy of the Cyber Hymnal™
C:George Nathaniel Fenn
Z:Public Domain
Z:Courtesy of the Cyber Hymnal™
%%score ( 1 2 ) ( 3 4 )
L:1/8
Q:1/4=91
M:4/4
K:A
V:1 treble 
V:2 treble 
V:3 bass 
V:4 bass 
V:1
 [CA][DB] | [Ec][^D^B][Ec][F=d] [Ec][=D=B][CA][EG] | [DF][EG][FA][DF] [CE]2 C[B,D] | %3
w: 1.~When ’mid|sounds of earth- ly voic- es none your|ac- cents ev- er hear, Will your|
w: 2.~Will you|be a- mong the num- ber who are|pure and un- de- filed, Called from|
w: 3.~Now put|on the wed- ding rai- ment and be|rea- dy for the call, With your|
 [A,E][CE][CA][DB] [Ec][EA][DG][CA] | [EB]6 [CA][DB] | [Ec][^D^B][Ec][F=d] [Ec][=D=B][CA][EG] | %6
w: tones be thrill- ing in re- demp- tion’s|psalm? Will your|soul in blood- washed gar- ments fair and|
w: earth- ly con- flict in- to Hea- ven’s|calm? Will you|by His Son’s a- tone- ment un- to|
w: sin- wounds cured by Cal- vary’s heal- ing|balm; Bow be-|fore the bless- èd Je- sus and pro-|
 [DF][EG][FA][DF] [CE]2 [A,C][B,D] | [CE][DE][EA][FB] [Ec][EA][DG][DB] | [CA]6 || %9
w: spot- less then ap- pear, At the|glor- ious mar- riage sup- per of the|Lamb?|
w: God be re- con- ciled, Ere the|glor- ious mar- riage sup- per of the|Lamb?|
w: claim Him Lord of all, At the|glor- ious mar- riage sup- per of the|Lamb.|
"^Refrain" [CA][CA] | (A ddd [Fd])[Fd][Fd][Fd] | c6 [Ec][Ac] | (Beee [Ge])[F^d][Ac][Ad] | %13
w: ||||
w: O the|glor- * * * * ious mar- riage|sup- per of|the * * * * * Lamb, O|
w: ||||
 e6 [Ec][Ed] | [Ee][Ec][Ed][Ee] [Ec]2 [CA][EG] | [DF][EG][FA][DF] [CE]2 [A,C][B,D] | %16
w: |||
w: the glor- ious|mar- riage sup- per of the Lamb;|Robed in gar- ments snow- y white|
w: |||
 [CE][DE][EA][FB] [Ec][CA]G[DB] | A6 |] %18
w: ||
w: will you meet the saints of light? At|the|
w: ||
V:2
 x2 | x8 | x6 C x | x8 | x8 | x8 | x8 | x8 | x6 || x2 | F4- x4 | EEEE E2 x2 | G4- x4 | GGAA G2 x2 | %14
 x8 | x8 | x8 | (CEFF E2) |] %18
V:3
 [A,,E,][A,,E,] | [A,,A,][A,,A,][A,,A,][A,,A,] [A,,A,][A,,A,][A,,A,][C,A,] | %2
w: ~ ~|~ ~ ~ ~ ~ ~ ~ ~|
 [D,A,][D,A,][D,A,][D,A,] [A,,A,]2 [A,,A,][B,,G,] | %3
w: ~ ~ ~ ~ ~ ~ ~|
 [C,A,][A,,A,][A,,A,][A,,A,] [A,,A,][C,E,][B,,E,][A,,A,] | [E,G,]6 [A,,E,][A,,E,] | %5
w: ~ ~ ~ ~ ~ ~ ~ ~|~ ~ ~|
 [A,,A,][A,,A,][A,,A,][A,,A,] [A,,A,][A,,A,][A,,A,][C,A,] | %6
w: ~ ~ ~ ~ ~ ~ ~ ~|
 [D,A,][D,A,][D,A,][D,A,] [A,,A,]2 [A,,E,][A,,E,] | %7
w: ~ ~ ~ ~ ~ ~ ~|
 [A,,A,][B,,G,][C,A,][D,A,] [E,A,][E,C][E,B,][E,G,] | [A,,A,]6 || z2 | %10
w: ~ ~ ~ ~ ~ ~ ~ ~|~||
 [D,A,]3 [D,A,] [D,A,][E,A,][F,A,][G,A,] | A,A,A,A, A,2 z2 | %12
w: O the glor- ious ~ ~|~ ~ ~ ~ ~|
 [E,B,]3 [E,B,] [B,,B,][B,,B,][B,,B,][B,,B,] | [E,B,][E,B,][E,C][E,C] [E,B,]2 A,[A,B,] | %14
w: O the glor- ious mar- riage|sup- per of the Lamb; * *|
 [A,C]A,[G,B,][E,G,] A,2 [A,,A,][C,A,] | [D,A,][D,A,][D,D][D,A,] [A,,A,]2 [A,,E,][A,,E,] | %16
w: ||
 [A,,A,][B,,G,][C,A,][D,A,] [E,A,][E,A,]E,[E,G,] | (A,CDD C2) |] %18
w: ||
V:4
 x2 | x8 | x8 | x8 | x8 | x8 | x8 | x8 | x6 || x2 | x8 | A,A,A,A, A,2 x2 | x8 | x6 A, x | %14
 x A, x A,2 x3 | x8 | x8 | A,,6 |] %18

